!!!COM: Mozart, Wolfgang Amadeus
!!!OTL: String Quartet No. 18 in A Major
!!!OMD: Andante
!!!OMV: 3
!!!SCT1: K<sup>1</sup> 464
!!!SCA: Chronologisch-thematisches Verzeichnis sämtlicher Tonwerke Wolfgang Amade Mozarts (L. von Köchel; 1862, 2/1905, 3/1937, 1947)
!!!SCT2: K<sup>6</sup> 464
!!!YOR: Breitkopf & Härtel Edition
!!!ENC: Frances Bennion
!!!CDT: 1756/1/27/-1791/12/5/
!!!OCY: Österreich
!!!YEC: Copyright (c) 1994, 2000 Center for Computer Assisted Research in the Humanities
!!!YEM: Rights to all derivative editions reserved.
!!!YEM: Refer to licensing agreement for further details.
!!!YEN: United States of America
**kern	**kern	**kern	**kern
*k[f#c#]	*k[f#c#]	*k[f#c#]	*k[f#c#]
*D:	*D:	*D:	*D:
*clefC	*clefF	*clefG	*clefG
*M2/4	*M2/4	*M2/4	*M2/4
4r	4r	4r	4r
4r	4r	4r	16.a
.	.	.	32f#
.	.	.	16.g
.	.	.	32e
=1	=1	=1	=1
8D	8F#	8A	8d
8r	8r	8r	4f#
8D	8A	8d	.
8r	8r	8r	[8a
=2	=2	=2	=2
8E	8A	8c#	8a]
4.r	4.r	4.r	8g
.	.	.	16a
.	.	.	16g
.	.	.	16f#
.	.	.	16e
=3	=3	=3	=3
8r	8r	8r	8d
8GG	8E	4A	8c#
8FF#	8F#	.	8d
8C#	8A	8e	8a
=4	=4	=4	=4
4D	8c#	8e	8g
.	8d	8d	8f#
4r	8d	8f#	8b
.	8c#	8e	8a
=5	=5	=5	=5
4r	8B	8d	8g#
.	8c#	8e	8a
8A	8c#	8f#	8ff#
8G#	8B	8e	8ee
=6	=6	=6	=6
8F#	8A	8d#	8dd#
8E	8G#	8e	8ee
4C#	8A	4g	[4ee
.	8A#	.	.
=7	=7	=7	=7
8D	8B	8f#	16ee]
.	.	.	16ff#
8r	8r	8r	16dd
.	.	.	32cc#
.	.	.	32b
8E	8.e	8.c#	8.a
8E	.	.	.
.	16g#	32e	32cc#
.	.	32d	32b
=8	=8	=8	=8
8AA	8a	8c#	8a
8A	4.r	4.r	8r
4r	.	.	16a
.	.	.	16g#
.	.	.	16a
.	.	.	16e
=9	=9	=9	=9
8r	8r	8r	4.e
8AA	8A	8c	.
8BB	8G	8B	.
8C	8F#	8A	8d#
=10	=10	=10	=10
8DD#	8c	8f#	8a
8EE	8B	8e	8g#
8r	8r	8r	16g
.	.	.	8b
8C#	8A	8e	.
.	.	.	16a
=11	=11	=11	=11
8r	8r	8r	16f#
.	.	.	8a
8D	8A	8d	.
.	.	.	16g
8r	8r	8r	16e
.	.	.	8g
8GG	8G	8B	.
.	.	.	16f#
=12	=12	=12	=12
4AA	8F#	4A	8d
.	8E	.	8c#
4r	8d	8f#	8b
.	8c#	8e	8a
=13	=13	=13	=13
4r	8B	8d	8g#
.	8c#	8e	8a
8B	8d	8g	8gg
8A	8c#	8f#	8ff#
=14	=14	=14	=14
8G#	8B	8e#	8ee#
8A	8c#	8f#	8ff#
4r	8g	8b	[4ee
.	8f#	8a#	.
=15	=15	=15	=15
4.r	8g	8b	16ee]
.	.	.	16bb
.	4r	4r	16gg
.	.	.	32ff#
.	.	.	32ee
.	.	.	8dd
8A	8g	8cc#	8ee
=16	=16	=16	=16
8A#	8c#	8ee	8gg
8B	8d	4dd	8ff#
8G#	8.e	.	8bb
8G	.	[8aa	8ccc#
.	32d	.	.
.	32e	.	.
=17	=17	=17	=17
8F#	24f#	24aa]	24ddd
.	24d	24ff#	24aa
.	24a	24dd	24ff#
8G	24g	24b	24ee
.	24e	24g	24gg
.	24b	24e	24bb
8A	8.a	8.f#	8.dd
8AA	.	.	.
.	16c#	32a	32ff#
.	.	32g	32ee
=18	=18	=18	=18
8D	8d	8f#	8dd
4.r	4.r	4.r	8r
.	.	.	32g#
.	.	.	32a
.	.	.	32b
.	.	.	32a
.	.	.	32g
.	.	.	32f#
.	.	.	32g
.	.	.	32e
=19	=19	=19	=19
4D	8r	8r	32d
.	.	.	32f#
.	.	.	32a
.	.	.	32dd
.	8F#	8A	[12..ff#
4F#	8A	8d	.
.	.	.	96ff#]
.	.	.	32ee
.	.	.	32dd
.	.	.	32cc#
.	8d	8f#	32ee
.	.	.	32dd
.	.	.	32cc#
.	.	.	32b
=20	=20	=20	=20
4E	8r	8r	8a
.	8G	8B	16g
.	.	.	16r
4BB	8B	8d	32g
.	.	.	32a
.	.	.	32b
.	.	.	32a
.	8d	8g	32g
.	.	.	32f#
.	.	.	32e
.	.	.	32d
=21	=21	=21	=21
4AA	8r	8r	32c#
.	.	.	32a
.	.	.	32cc#
.	.	.	32ee
.	8c#	8e	[12..gg
4C#	8e	8a	.
.	.	.	96gg]
.	.	.	32ee
.	.	.	32cc#
.	.	.	32dd
.	8a	8gg	32ee
.	.	.	32cc#
.	.	.	32e
.	.	.	32a
=22	=22	=22	=22
4D	8r	8r	8g
.	8A	8d	16f#
.	.	.	8r
4r	8d	8f#	.
.	.	.	8b
.	8c#	8e	.
.	.	.	[16a
=23	=23	=23	=23
4r	8B	8d	16a]
.	.	.	8g#
.	8c#	8e	.
.	.	.	16a
8A	8c#	8f#	32r
.	.	.	32ff#
.	.	.	32gg#
.	.	.	32ff#
8G#	8B	8e	32r
.	.	.	32ee
.	.	.	32ff#
.	.	.	32ee
=24	=24	=24	=24
8F#	8A	8d#	32r
.	.	.	32dd#
.	.	.	32ee
.	.	.	32dd#
8G#	8B	4e	32r
.	.	.	32ee
.	.	.	32ff#
.	.	.	32ee
4C#	8c#	.	32aa
.	.	.	32ccc#
.	.	.	32bb
.	.	.	32aa
.	8e	[8a	32gg#
.	.	.	32ff#
.	.	.	32ee
.	.	.	32dd
=25	=25	=25	=25
4D	4f#	8a]	32cc#
.	.	.	32b
.	.	.	32cc#
.	.	.	32dd
.	.	8b	32ee
.	.	.	32ff#
.	.	.	32ee
.	.	.	32dd
8E	8.e	32a	32cc#
.	.	32b	32dd
.	.	32b#	32dd#
.	.	32cc#	32ee
8E	.	32b	32dd
.	.	32a	32cc#
.	16d	32b	32dd
.	.	32g#	32b
=26	=26	=26	=26
8AA	8c#	8a	8a
8A	4.r	4.r	8r
4r	.	.	32a
.	.	.	32b
.	.	.	32cc
.	.	.	32b
.	.	.	32a
.	.	.	32g#
.	.	.	32a
.	.	.	32f
=27	=27	=27	=27
4C	8r	8r	32e
.	.	.	32a
.	.	.	32cc
.	.	.	32ee
.	8E	8A	[12..aa
4BB	8F#	8d#	.
.	.	.	96aa]
.	.	.	32ff#
.	.	.	32dd#
.	.	.	32ee
.	8d#	8a	32ff#
.	.	.	32dd#
.	.	.	32f#
.	.	.	32b
=28	=28	=28	=28
4E	8r	8r	8a
.	8E	8B	16g
.	.	.	16r
4C#	8A	8g	32ee
.	.	.	32gg
.	.	.	32ff#
.	.	.	32ee
.	8g	8ee	32dd
.	.	.	32cc#
.	.	.	32b
.	.	.	32a
=29	=29	=29	=29
4D	8r	8r	32g
.	.	.	32f#
.	.	.	32g
.	.	.	32a
.	8A	8f#	32b
.	.	.	32cc#
.	.	.	32ee
.	.	.	32dd
4GG	8e	8g	32cc#
.	.	.	32b
.	.	.	32a
.	.	.	32g
.	8g	8b	32f#
.	.	.	32e
.	.	.	32g
.	.	.	32B
=30	=30	=30	=30
4AA	8r	8r	8d
.	8A	8e	16c#
.	.	.	8r
4r	8d	8f#	.
.	.	.	8b
.	8c#	8e	.
.	.	.	[16a
=31	=31	=31	=31
4r	8B	8d	16a]
.	.	.	8g#
.	8c#	8e	.
.	.	.	16a
8B	8d	8g	32r
.	.	.	32gg
.	.	.	32aa
.	.	.	32gg
8A	8c#	8f#	32r
.	.	.	32ff#
.	.	.	32gg
.	.	.	32ff#
=32	=32	=32	=32
8G#	8B	8e#	32r
.	.	.	32ee#
.	.	.	32ff#
.	.	.	32ee#
8A	8c#	8f#	32r
.	.	.	32ff#
.	.	.	32gg
.	.	.	32ff#
8G	8g	8b	32ee
.	.	.	32gg
.	.	.	32ff#
.	.	.	32ee
8A	8f#	8cc	32dd#
.	.	.	32ff#
.	.	.	32ee
.	.	.	32dd#
=33	=33	=33	=33
8G	8g	8b	32ee
.	.	.	32bb
.	.	.	32aa#
.	.	.	32aa
8r	8r	8r	32gg#
.	.	.	32gg
.	.	.	32ff#
.	.	.	32ee
8A	8f#	8a	32dd
.	.	.	32aa
.	.	.	32bb
.	.	.	32aa
8A	8a	8cc#	32ee
.	.	.	32aa
.	.	.	32bb
.	.	.	32aa
=34	=34	=34	=34
8D	8cc#	8ee	8gg
8r	16dd	16dd	16ff#
.	16r	16r	16r
4G	[4a	4cc# 4e	32ee
.	.	.	32ff#
.	.	.	32gg
.	.	.	32aa
.	.	.	32bb
.	.	.	32ccc#
.	.	.	32ddd
.	.	.	32eee
=35	=35	=35	=35
16F#	16a]	16dd 16d	32fff#
.	.	.	32ccc#
16r	16r	16r	32ddd
.	.	.	32aa#
16G	16d	16b	32bb
.	.	.	32ff#
16r	16r	16r	32gg
.	.	.	32ee
8A	8.a	16.f#	32dd
.	.	.	32ff#
.	.	.	32aa
.	.	32e#	32gg#
8AA	.	32e	32gg
.	.	32d	32ff#
.	16g	32e	32gg
.	.	32c#	32ee
=36	=36	=36	=36
8D	8f#	8d	8dd
4.r	4.r	8r	8r
.	.	32d	8a
.	.	32f#	.
.	.	32a	.
.	.	32f#	.
.	.	32d	8a
.	.	32A	.
.	.	32d	.
.	.	32A	.
=37	=37	=37	=37
8D	2r	32d	8a
.	.	32f#	.
.	.	32a	.
.	.	32f#	.
8r	.	32d	4dd
.	.	32A	.
.	.	32d	.
.	.	32A	.
8D	.	32d	.
.	.	32f#	.
.	.	32a	.
.	.	32f#	.
8r	.	32d	8ff#
.	.	32A	.
.	.	32d	.
.	.	32A	.
=38	=38	=38	=38
[6..D	8r	32e	24ff#
.	.	32g	.
.	.	.	24aa
.	.	32a	.
.	.	.	24gg
.	.	32g	.
.	8G 8E	32e	8gg
.	.	32A	.
.	.	32e	.
.	.	32A	.
.	8G 8E	32e	8a
.	.	32g	.
48D]	.	.	.
32C#	.	32a	.
32D	.	32g	.
16E	8G 8E	32e	8a
.	.	32A	.
16D	.	32e	.
.	.	32A	.
=39	=39	=39	=39
8C#	4G 4E	32e	8a
.	.	32g	.
.	.	32a	.
.	.	32g	.
8r	.	32e	4cc#
.	.	32A	.
.	.	32e	.
.	.	32A	.
8AA	4r	32c#	.
.	.	32e	.
.	.	32a	.
.	.	32e	.
8r	.	32c#	8ee
.	.	32A	.
.	.	32c#	.
.	.	32A	.
=40	=40	=40	=40
4D	8r	32d	24ee
.	.	32f#	.
.	.	.	24gg
.	.	32a	.
.	.	.	24ff#
.	.	32f#	.
.	8D	32d	8ff#
.	.	32A	.
.	.	32d	.
.	.	32A	.
8r	4f#	32d	16b
.	.	32f#	.
.	.	32b	16cc#
.	.	32f#	.
[8d	.	32d	16dd
.	.	32B	.
.	.	32d	16b
.	.	32B	.
=41	=41	=41	=41
8d]	16g#	32e	8.ee
.	.	32g#	.
.	16e	32b	.
.	.	32g#	.
8c#	8e	32a	.
.	.	32e	.
.	.	32a	64dd
.	.	.	64cc#
.	.	32e	64b
.	.	.	64a
8AA	8C#	32a	16ff#
.	.	32cc#	.
.	.	32ff#	16gg#
.	.	32cc#	.
[8A	8c#	32a	16aa
.	.	32f#	.
.	.	32a	16ff#
.	.	32f#	.
=42	=42	=42	=42
8A]	16d#	32b	8.bb
.	.	32dd#	.
.	16B	32ff#	.
.	.	32dd#	.
8G#	16g#	32ee	.
.	.	32b	.
.	16e	32ee	64aa
.	.	.	64gg#
.	.	32b	64ff#
.	.	.	64ee
8AA	16.c#	32a	16.ccc#
.	.	32cc#	.
.	.	32ee	.
.	32e	32cc#	32aa
8BB	16.d	32ee	16.gg#
.	.	32dd	.
.	.	32b	.
.	32B	32g#	32bb
=43	=43	=43	=43
8C#	16.E	32e	16.aa
.	.	32a	.
.	.	32cc#	.
.	32e	32a	32cc#
8D	16.d	32f#	16.b
.	.	32a	.
.	.	32f#	.
.	32B	32d	32ff#
8E	8e	32c#	8a
.	.	32e	.
.	.	32c#	.
.	.	32A	.
8EE	8g#	32d	8b
.	.	32e	.
.	.	32d	.
.	.	32B	.
=44a	=44a	=44a	=44a
8AA	8a	32c#	8a
.	.	32e	.
.	.	32a	.
.	.	32g#	.
8r	8r	32g	8r
.	.	32f#	.
.	.	32g	.
.	.	32e	.
4r	4r	4r	4r
=44b	=44b	=44b	=44b
8AA	8a	32c#	8a
.	.	32e	.
.	.	32f#	.
.	.	32g#	.
8r	8r	32a	8r
.	.	32g#	.
.	.	32b	.
.	.	32a	.
4r	4r	32cc	8a
.	.	32dd	.
.	.	32cc	.
.	.	32b	.
.	.	32a	8a
.	.	32g	.
.	.	32f#	.
.	.	32e	.
=45	=45	=45	=45
8BB	8F#	32d#	8a
.	.	32f#	.
.	.	32a	.
.	.	32f#	.
8r	4A	32d#	4ccc
.	.	32B	.
.	.	32d#	.
.	.	32B	.
8D#	.	32f#	.
.	.	32a	.
.	.	32cc	.
.	.	32a	.
8r	8B	32f#	8bb
.	.	32B	.
.	.	32f#	.
.	.	32B	.
=46	=46	=46	=46
8.E	16c	32e	24aa
.	.	32g	.
.	.	.	24ff#
.	16B	32b	.
.	.	.	24gg
.	.	32g	.
.	8B	32e	8gg
.	.	32B	.
16D	.	32e	.
.	.	32B	.
8C#	8r	32e	16gg
.	.	32g	.
.	.	32a	8eee
.	.	32g	.
8r	8c#	32e	.
.	.	32A	.
.	.	32e	16gg
.	.	32A	.
=47	=47	=47	=47
8D	8r	32d	16ff#
.	.	32f#	.
.	.	32a	8ddd
.	.	32g	.
8r	8d	32f#	.
.	.	32e	.
.	.	32d	16ff#
.	.	32c#	.
8GG	8r	32B	16ee
.	.	32g	.
.	.	32b	8bb
.	.	32a	.
8r	8G	32g	.
.	.	32f#	.
.	.	32e	16b
.	.	32d	.
=48	=48	=48	=48
4AA	8r	32f#	8dd
.	.	32a	.
.	.	32f#	.
.	.	32d	.
.	8A	32e	8cc#
.	.	32a	.
.	.	32e	.
.	.	32c#	.
8r	4f#	32d	16b
.	.	32f#	.
.	.	32b	16cc#
.	.	32f#	.
[8d	.	32d	16dd
.	.	32B	.
.	.	32d	16b
.	.	32B	.
=49	=49	=49	=49
8d]	16g#	32e	8.ee
.	.	32g#	.
.	16e	32b	.
.	.	32g#	.
8c#	8e	32a	.
.	.	32e	.
.	.	32a	64dd
.	.	.	64cc#
.	.	32e	64b
.	.	.	64a
8GG	8B	32g	16ee
.	.	32b	.
.	.	32ee	16ff#
.	.	32b	.
[8G	8b	32g	16gg
.	.	32e	.
.	.	32g	16ee
.	.	32e	.
=50	=50	=50	=50
8G]	16cc#	32a	8.aa
.	.	32cc#	.
.	16a	32ee	.
.	.	32cc#	.
8F#	8a	32dd	.
.	.	32a	.
.	.	32dd	64gg
.	.	.	64ff#
.	.	32a	64ee
.	.	.	64dd
8G	16.g	32e	16.bb
.	.	32g	.
.	.	32b	.
.	32B	32g	32ee
8A	16.c	32f#	16.dd#
.	.	32a	.
.	.	32f#	.
.	32f#	32d#	32ccc
=51	=51	=51	=51
8G	8g	32e	8.bb
.	.	32B	.
.	.	32e	.
.	.	32g	.
4r	8G	32b	.
.	.	32g	.
.	.	32b	64aa
.	.	.	64gg
.	.	32g	64ff#
.	.	.	64ee
.	8A	32f#	8dd
.	.	32a	.
.	.	32f#	.
.	.	32d	.
8AA	8r	32g	8cc#
.	.	32a	.
.	.	32g	.
.	.	32e	.
=52	=52	=52	=52
8AA#	4r	32c#	8gg
.	.	32d	.
.	.	32e	.
.	.	32c#	.
8BB	.	32d	8ff#
.	.	32e	.
.	.	32f#	.
.	.	32d	.
8GG#	16.dd	32e	16.bb
.	.	32g#	.
.	.	32b	.
.	32b	32dd	32ee
8GG	16.a	32e	16.ccc#
.	.	32a	.
.	.	32cc#	.
.	32cc#	32ee	32aa
=53	=53	=53	=53
8FF#	16.dd	32a	16.ddd
.	.	32dd	.
.	.	32ff#	.
.	32a	32dd	32ff#
8GG	16.g	32b	16.ee
.	.	32dd	.
.	.	32b	.
.	32e	32g	32bb
8AA	8a	32f#	8dd
.	.	32a	.
.	.	32f#	.
.	.	32d	.
8AA	8cc#	32g	8ee
.	.	32a	.
.	.	32g	.
.	.	32e	.
=54a	=54a	=54a	=54a
8DD	8dd	32f#	8dd
.	.	32e	.
.	.	32d	.
.	.	32e	.
8r	8r	32f#	8r
.	.	32g	.
.	.	32a	.
.	.	32b	.
4r	4r	4r	4r
=54b	=54b	=54b	=54b
8DD	8dd	8f#	8dd
8r	8r	8r	8r
4r	4r	16.d	16.f#
.	.	32A	32d
.	.	16.e	16.g
.	.	32c#	32e
=55	=55	=55	=55
4r	8r	8f#	8a
.	8.dd	4.r	4.r
4D	.	.	.
.	32cc#	.	.
.	32b	.	.
.	32b	.	.
.	32a	.	.
.	32g	.	.
.	32f#	.	.
=56	=56	=56	=56
8E	8a	4r	4r
4.r	16g	.	.
.	6..r	.	.
.	.	16.c#	16.e
.	.	32A	32c#
.	.	16.d	16.f#
.	.	32B	32d
.	48r	.	.
=57	=57	=57	=57
4r	8r	8e	8g
.	8.ee	4.r	4.r
4C#	.	.	.
.	32dd	.	.
.	32cc#	.	.
.	32b	.	.
.	32a	.	.
.	32b	.	.
.	32g	.	.
=58	=58	=58	=58
8D	8e#	2r	2r
8r	16f#	.	.
.	6..r	.	.
8BB	.	.	.
8AA	.	.	.
.	48r	.	.
=59	=59	=59	=59
8GG#	4r	2r	2r
8AA	.	.	.
[4A	8f#	.	.
.	8e	.	.
=60	=60	=60	=60
8A]	8d#	4r	4r
8G#	8e	.	.
4C#	8A	8g	8gg
.	8A#	8f#	8ff#
=61	=61	=61	=61
8D	8B	8e#	8ee#
8D#	8c	8f#	8ff#
8E	8.c#	8.e	8.a
8EE	.	.	.
.	32e	16g#	32cc#
.	32d	.	32b
=62	=62	=62	=62
8AA	8c#	8a	8a
4.r	4.r	8r	8r
.	.	16.c	16.e
.	.	32A	32c
.	.	16.e	16.a
.	.	32c	32e
=63	=63	=63	=63
8r	8r	8a	8cc
8C	8.e	4.r	4.r
8BB	.	.	.
.	16d#	.	.
8D#	16cc	.	.
.	16b	.	.
=64	=64	=64	=64
8E	8a	4r	4r
8r	16g	.	.
.	6..r	.	.
8A	.	16.cc#	16.ee
.	.	32a	32cc#
8G	.	32ee	32gg
.	.	32cc#	32ee
.	.	32ee	32gg
.	.	32cc#	32ee
.	48r	.	.
=65	=65	=65	=65
8F#	8r	8ff#	8aa
8FF#	8.a	4.r	4.r
8.GG	.	.	.
.	16b	.	.
.	32a	.	.
.	32g	.	.
16GG#	32f#	.	.
.	32e	.	.
=66	=66	=66	=66
8AA	8d	4.r	4r
4.r	16c#	.	.
.	8.r	.	.
.	.	.	8bb
.	[8dd	8ff#	8aa
=67	=67	=67	=67
2r	8dd]	8ff	8gg#
.	8cc#	8ee	8aa
.	8r	8gg	8r
.	[8b	8ff#	[8ddd
=68	=68	=68	=68
4r	8b]	8ee#	8ddd]
.	8a	8ff#	8ccc#
8e	8g	8r	8r
8d	8f#	[8gg	16.bb
.	.	.	32aa
=69	=69	=69	=69
8c#	8e	8gg]	8.aa
8d	8f#	8ff#	.
.	.	.	16bb
8A	8a	8f#	8dd
[8A#	8g	8e	8cc#
=70	=70	=70	=70
8A#]	8e	8cc#	8gg
8B	8d	8dd	8ff#
8A	8d#	8cc	8ccc
8G	8e	8b	8bb
=71	=71	=71	=71
8F#	8e	8a#	8aa#
8G#	8f	8b	8bb
8A	8.a	8.f#	8.dd
8AA	.	.	.
.	16c#	32a	32ff#
.	.	32g	32ee
=72	=72	=72	=72
8D	8d	8f#	8dd
4.r	8r	8r	8r
.	8F	8A	8d
.	8F	8A	8d
=73	=73	=73	=73
24D	[4.F	4.A	6..d
24C#	.	.	.
24D	.	.	.
24F	.	.	.
24A	.	.	.
24F	.	.	.
8D	.	.	.
.	.	.	24f
.	.	.	24d
8r	24F]	8d	24a
.	24G	.	24g
.	24A	.	24f
=74	=74	=74	=74
24GG	4.B-	4.d	6..e
24FF#	.	.	.
24GG	.	.	.
24BB-	.	.	.
24D	.	.	.
24BB-	.	.	.
8GG	.	.	.
.	.	.	24g
.	.	.	24e
8r	8E	8G	24b-
.	.	.	24g
.	.	.	24e
=75	=75	=75	=75
24AA	4.G	4.e	8d
24GG#	.	.	.
24AA	.	.	.
24C#	.	.	6c#
24E	.	.	.
24C#	.	.	.
8AA	.	.	.
.	.	.	24e
.	.	.	24g#
8r	8E	8c#	24a
.	.	.	24e
.	.	.	24a
=76	=76	=76	=76
24D	8c#	8e	8g
24C#	.	.	.
24D	.	.	.
24F	8d	8d	8f
24A	.	.	.
24F	.	.	.
8D	8r	8r	24r
.	.	.	24b-
.	.	.	24a
8r	[8d	[8f	24b-
.	.	.	24dd
.	.	.	24b-
=77	=77	=77	=77
4r	8d]	8f]	24g#
.	.	.	24b
.	.	.	24g#
.	8c	8e	24a
.	.	.	24cc
.	.	.	24a
8AA	8C	24r	24r
.	.	24f	24ff
.	.	24e	24ee
[8A	[8c	24f	24ff
.	.	24a	24aa
.	.	24f	24ff
=78	=78	=78	=78
8A]	8c]	24d#	24dd#
.	.	24f#	24ff#
.	.	24d#	24dd#
8G#	8B	24e	24ee
.	.	24g#	24gg#
.	.	24e	24ee
24r	24r	8.ee	8.ccc
24A	24c	.	.
24G#	24B	.	.
24A	24c	.	.
24c	24e	.	.
.	.	32r	32r
24A	24c	.	.
.	.	32e	32cc
=79	=79	=79	=79
24r	24r	8.cc	8.aa
24F	24A	.	.
24E	24G#	.	.
24F	24A	.	.
24A	24c	.	.
.	.	32r	32r
24F	24A	.	.
.	.	32c	32a
24D	8B	8a	8ff
24C	.	.	.
24D	.	.	.
24E	8e	8B	8g#
24D	.	.	.
24E	.	.	.
=80	=80	=80	=80
8AA	8e	8A	8a
4.r	4.r	4.r	8r
.	.	.	8a
.	.	.	8a
=81	=81	=81	=81
8AA	6..r	24r	4.a
.	.	24A	.
.	.	24c#	.
8r	.	24e	.
.	.	24c#	.
.	.	24e	.
8AA	.	8a	.
.	24e	.	.
.	24c#	.	.
8r	24e	8r	8aa
.	24c#	.	.
.	24A	.	.
=82	=82	=82	=82
8AA	8d	24r	4.ff
.	.	24A	.
.	.	24d	.
8r	6r	24f	.
.	.	24d	.
.	.	24f	.
8AA	.	8a	.
.	24f	.	.
.	24d	.	.
8r	24f	8r	16ee
.	24d	.	.
.	.	.	16dd
.	24A	.	.
=83	=83	=83	=83
8AA	4g	24r	4cc#
.	.	24e	.
.	.	24g	.
8r	.	24a	.
.	.	24g	.
.	.	24e	.
8AA	8.f	24r	8.dd
.	.	24d	.
.	.	24f	.
8r	.	24a	.
.	.	24f	.
.	32e	.	32cc#
.	.	24d	.
.	32d	.	32dd
=84	=84	=84	=84
24r	8c#	8A	8ee
24AA	.	.	.
24C#	.	.	.
24E	4.r	4.r	8r
24C#	.	.	.
24E	.	.	.
24A	.	.	8a
24c#	.	.	.
24A	.	.	.
24E	.	.	8a
24C#	.	.	.
24E	.	.	.
=85	=85	=85	=85
8AA	6..r	24r	8a
.	.	24A	.
.	.	24c#	.
8r	.	24e	4bb-
.	.	24c#	.
.	.	24e	.
8AA	.	8g	.
.	24e	.	.
.	24c#	.	.
8r	24e	8r	16aa
.	24c#	.	.
.	.	.	16gg
.	24A	.	.
=86	=86	=86	=86
8AA	8d	24r	4.ff
.	.	24A	.
.	.	24d	.
8r	6r	24f	.
.	.	24d	.
.	.	24f	.
8AA	.	8a	.
.	24f	.	.
.	24d	.	.
8r	24f	8r	16ee
.	24d	.	.
.	.	.	16dd
.	24A	.	.
=87	=87	=87	=87
2BB-	8d	24r	4fff
.	.	24c#	.
.	.	24d	.
.	6r	24f	.
.	.	24c#	.
.	.	24d	.
.	.	8f	4gg#
.	24c#	.	.
.	24d	.	.
.	24f	8r	.
.	24e	.	.
.	24d	.	.
=88	=88	=88	=88
8AA	8c#	4r	8aa
4.r	8r	.	6r
.	8G	8B-	.
.	.	.	24ee-
.	.	.	24dd
.	[8g	[8b-	24ee-
.	.	.	24gg
.	.	.	24ee-
=89	=89	=89	=89
4r	8g]	8b-]	24cc#
.	.	.	24ee
.	.	.	24cc#
.	8f	8a	24dd
.	.	.	24ff
.	.	.	24dd
8D	8F	24r	24r
.	.	24b-	24bb-
.	.	24a	24aa
[8d	[8f	24b-	24bb-
.	.	24dd	24ddd
.	.	24b-	24bb-
=90	=90	=90	=90
8d]	8f]	24g#	24gg#
.	.	24b	24bb
.	.	24g#	24gg#
8c#	8e	24a	24aa
.	.	24cc#	24ccc#
.	.	24a	24aa
24r	24r	8.aa	8.fff
24d	24f	.	.
24c#	24e	.	.
24d	24f	.	.
24f	24a	.	.
.	.	32r	32r
24d	24f	.	.
.	.	32a	32ff
=91	=91	=91	=91
24r	24r	8.ff	8.ddd
24B-	24d	.	.
24A	24c#	.	.
24B-	24d	.	.
24d	24f	.	.
.	.	32r	32r
24B-	24d	.	.
.	.	32f	32dd
24G	8e	8dd	8bb-
24F	.	.	.
24G	.	.	.
24A	8e	8cc#	8gg
24G	.	.	.
24A	.	.	.
=92	=92	=92	=92
8B-	8d	8dd	8ff
6r	6r	8r	8r
.	.	8.g#	8.ff
24BB-	24D	.	.
24AA	24C#	.	.
24BB-	24D	.	.
24D	24F	.	.
.	.	32r	32r
24BB-	24D	.	.
.	.	32G#	32f
=93	=93	=93	=93
24r	24r	8.f	8.dd
24GG#	24B	.	.
24FF#	24A	.	.
24GG#	24B	.	.
24BB	24d	.	.
.	.	32r	32r
24GG#	24F	.	.
.	.	32B	32d
24AA	8E	8d	8a
24GG#	.	.	.
24AA	.	.	.
24AA	8E	8c#	8a
24GG#	.	.	.
24AA	.	.	.
=94	=94	=94	=94
8DD	8D	8d	8d
4.r	4.r	4.r	8r
.	.	.	8a
.	.	.	8g
=95	=95	=95	=95
2r	2r	4r	8f#
.	.	.	4b
.	.	8d	.
.	.	8c#	[8a
=96	=96	=96	=96
8r	2r	8B	8a]
8EE	.	4e	8..g
8FF#	.	.	.
.	.	.	32a
8GG	.	[8d	16.f#
.	.	.	32g
=97	=97	=97	=97
8AA	8r	8d]	8e
4.r	8A	8c#	4a
.	8B	8d	.
.	8c#	8e	[8g
=98	=98	=98	=98
8r	8d	8A	8g]
8DD	8F#	8..d	8..f#
8EE	8G	.	.
.	.	32e	32g
8FF#	8A	16.c#	16.e
.	.	32d	32f#
=99	=99	=99	=99
8GG	8B	8B	8d
8EE	8G	8..e	8..g
8FF#	8A	.	.
.	.	32f#	32a
8GG	8B	16.d	16.f#
.	.	32e	32g
=100	=100	=100	=100
8AA	8c#	8c#	8e
8FF#	8A	8..f#	8..a
8GG	8B	.	.
.	.	32g	32b
8AA	8c#	16.e	16.g
.	.	32f#	32a
=101	=101	=101	=101
2BB	8d	[6..d	8f#
.	8f#	.	8b
.	4e	.	8a
.	.	48d]	.
.	.	32c#	.
.	.	32d	.
.	.	16e	16g#
.	.	16d	32f#
.	.	.	32g#
=102	=102	=102	=102
8AA	8e	8c#	8a
4.r	8r	4.r	8r
.	8A	.	8a
.	8c#	.	8g
=103	=103	=103	=103
4r	8d	4r	8f#
.	4.r	.	4b
8BB	.	8d	.
8D#	.	8c	[8a
=104	=104	=104	=104
8E	4r	8B	8a]
4.r	.	4c#	16.g
.	.	.	32f#
.	8E	.	16.g
.	.	.	32a
.	8G#	[8d	16.f#
.	.	.	32g
=105	=105	=105	=105
4r	8A	8d]	8e
.	4.r	16.c	4a
.	.	32B	.
8AA	.	16.c	.
.	.	32d	.
8C	.	16.B	[8g
.	.	32c	.
=106	=106	=106	=106
8D	4r	8A	8g]
4.r	.	4d	16.f#
.	.	.	32e
.	8d	.	16.f#
.	.	.	32g
.	8c	8a	16.e
.	.	.	32f#
=107	=107	=107	=107
4r	8B	8b	8g
.	4e	16.cc#	4.r
.	.	32b	.
8G	.	8cc#	.
8F#	[8d	8dd	.
=108	=108	=108	=108
8E	16.d]	16.ee	4r
.	32B	32dd	.
4A	16.c#	16.cc#	.
.	32d	32b	.
.	4e	8a	8cc#
8G	.	8c#	8b
=109	=109	=109	=109
8F#	16.f#	16.d	8a
.	32A	32a	.
16.E	16.B	16.g#	8..ee
32D	32c#	32f#	.
8E	8.B	8.g#	.
.	.	.	32ff#
8E	.	.	16.dd
.	32A	32f#	.
.	32B	32g#	32ee
=110	=110	=110	=110
8AA	8A	8a	8cc#
8A	8r	8r	4r
4r	8f#	8a	.
.	8e	8g	[8cc
=111	=111	=111	=111
8r	8d#	8f#	8cc]
8BB	4g	4b	8b
8C#	.	.	4r
8D#	[8f#	[8a	.
=112	=112	=112	=112
4E	8f#]	8a]	8r
.	8..e	8..g	8gg
4r	.	.	8aa
.	32f	32a	.
.	16.d	16.f	[8bb-
.	32e	32g	.
=113	=113	=113	=113
8r	8c#	8e	8bb-]
8AA	4f#	4a	8aa
8BB	.	.	4r
8C#	[8e	[8g	.
=114	=114	=114	=114
4D	8e]	8g]	4r
.	16.d	16.f#	.
.	32c#	32e	.
4r	8d	8f#	8dd
.	8r	8r	8cc#
=115	=115	=115	=115
2GG#	2r	8d	8b
.	.	8c#	8..ee
.	.	8B	.
.	.	.	32ff#
.	.	[8e	16.dd
.	.	.	32ee
=116	=116	=116	=116
4.AA	8G	16.e]	8cc#
.	.	32f#	.
.	8F#	16.d	8..aa
.	.	32e	.
.	8E	8c#	.
.	.	.	32bb
8C#	[8A	8e	16.gg
.	.	.	32aa
=117	=117	=117	=117
8D	8A]	8d	16.ff#
.	.	.	32gg
8G	8g	8b	16.ee
.	.	.	32ff#
8A	8f#	8a	16.dd
.	.	.	32ee
8AA	16.e	8g	16.cc#
.	32c#	.	32ee
=118	=118	=118	=118
4D	8d	8f#	8dd
.	8..a	4.r	4.r
8r	.	.	.
.	32b	.	.
[8A	16.g	.	.
.	32a	.	.
=119	=119	=119	=119
16.A]	16.f#	4.r	8r
32B	32g	.	.
16.G	16.e	.	8..bb
32A	32f#	.	.
8F#	8d#	.	.
.	.	.	32ccc
8D#	8f#	[8b	16.aa
.	.	.	32bb
=120	=120	=120	=120
8E	8e	16.b]	16.gg
.	.	32cc	32aa
8..e	4.r	16.a	16.ff#
.	.	32b	32gg
.	.	8g	8ee
32f#	.	.	.
16.d	.	[8ee	8r
32e	.	.	.
=121	=121	=121	=121
16.c#	8r	16.ee]	4.r
32d	.	32ff#	.
16.B	8..a	16.dd	.
32c#	.	32ee	.
8A	.	8cc#	.
.	32b	.	.
8C#	16.g	8ee	[8aa
.	32a	.	.
=122	=122	=122	=122
8D	16.f#	8a	16.aa]
.	32g	.	32bb
8r	16.e	16cc#	16.gg
.	.	32b	.
.	32f#	32cc#	32aa
8D	8d	8dd	8ff#
8C#	8r	8r	8r
=123	=123	=123	=123
8BB	4r	8dd	2r
8..E	.	8cc#	.
.	8g	8b	.
32F#	.	.	.
16.D	8f#	[8ee	.
32E	.	.	.
=124	=124	=124	=124
8C#	8e	16.ee]	8gg
.	.	32ff#	.
8D	8..a	16.dd	8ff#
.	.	32ee	.
8AA	.	16.cc#	8ee
.	32b	32dd	.
8C#	16.g	8ee	[8aa
.	32a	.	.
=125	=125	=125	=125
8D	8f#	8dd	16.aa]
.	.	.	32bb
8G	8b	8ee	16.gg
.	.	.	32aa
8A	8a	8dd	16.ff#
.	.	.	32gg
8AA	8g	8cc#	16.ee
.	.	.	32ff#
=126	=126	=126	=126
8D	8f#	8dd	8dd
8r	4.r	4.r	4.r
16D	.	.	.
16AA	.	.	.
16D	.	.	.
16AA	.	.	.
=127	=127	=127	=127
16D	4.d	4.f#	4.a
32AA	.	.	.
32AA	.	.	.
16AA	.	.	.
16AA	.	.	.
16D	.	.	.
16AA	.	.	.
16F#	8A	8a	8dd
16AA	.	.	.
=128	=128	=128	=128
16E	4.g	[2a	4.cc#
32AA	.	.	.
32AA	.	.	.
16AA	.	.	.
16AA	.	.	.
16E	.	.	.
16AA	.	.	.
16D	8f#	.	8dd
16AA	.	.	.
=129	=129	=129	=129
16C#	8e	2a_	8ee
16AA	.	.	.
16D	8d	.	8ff#
16AA	.	.	.
16E	8c#	.	8gg
16AA	.	.	.
16C#	8e	.	8aa
16AA	.	.	.
=130	=130	=130	=130
16D	8e	8a]	8gg
32AA	.	.	.
32AA	.	.	.
16AA	16d	8r	16ff#
16AA	16r	.	6..r
16G	8c#	8b	.
16AA	.	.	.
16F#	[8d	8a	.
16AA	.	.	.
.	.	.	48r
=131	=131	=131	=131
16E#	8d]	8g#	4r
16AA	.	.	.
16F#	8A	8a	.
16AA	.	.	.
16D	4r	8g#	8ff#
16AA	.	.	.
16C#	.	[8a	8ee
16AA	.	.	.
=132	=132	=132	=132
16BB#	8r	8a]	8dd#
16AA	.	.	.
16C#	4a	8g	4ee
16AA	.	.	.
16D	.	8f#	.
16AA	.	.	.
16G#	8b	8f	8dd
16AA	.	.	.
=133	=133	=133	=133
16A	8a	8e	8cc#
16AA	.	.	.
16D#	8f#	4a	8cc
16AA	.	.	.
16E	8B	.	16b
16AA	.	.	32b
.	.	.	32a
16D	8e	8g#	16b
16AA	.	.	16ee
=134	=134	=134	=134
16C#	8e	8a	8ee
32AA	.	.	.
32AA	.	.	.
16AA	16c#	16e	16a
16AA	16r	16r	16r
16A	8c#	8e	8a
16AA	.	.	.
16G	8c#	8e	8a
16AA	.	.	.
=135	=135	=135	=135
16F#	8d#	8f#	8a
16AA	.	.	.
16E	8e	8g	8cc
16AA	.	.	.
16D#	8f#	8a	8b
16AA	.	.	.
16F#	8B	8d#	8a
16AA	.	.	.
=136	=136	=136	=136
16E	8c#	8e	8g
16AA	.	.	.
16D	8d	8f	8b-
16AA	.	.	.
16C#	8e	8g	8a
16AA	.	.	.
16E	8A	8c#	8g
16AA	.	.	.
=137	=137	=137	=137
16D	4A	4.d	8f#
16AA	.	.	.
16F#	.	.	8a
16AA	.	.	.
16G	8r	.	8b
16AA	.	.	.
16G#	8e	8b	8ee
16AA	.	.	.
=138	=138	=138	=138
16A	8g#	8b	8dd
32AA	.	.	.
32AA	.	.	.
16AA	16a	16a	16cc#
16AA	16r	16r	6..r
16G	8c#	8b	.
16AA	.	.	.
16F#	[8d	8a	.
16AA	.	.	.
.	.	.	48r
=139	=139	=139	=139
16E#	8d]	8g#	4r
16AA	.	.	.
16F#	8A	8a	.
16AA	.	.	.
16E	4r	8cc#	8gg
16AA	.	.	.
16D	.	8dd	8ff#
16AA	.	.	.
=140	=140	=140	=140
16C#	8r	4a	8ee#
16AA	.	.	.
16D#	8cc	.	4ff#
16AA	.	.	.
16E	8b	8g#	.
32AA	.	.	.
32AA	.	.	.
16C#	8b-	8g	[8ee
16AA	.	.	.
=141	=141	=141	=141
16D	8a	8f#	8ee]
32AA	.	.	.
32AA	.	.	.
16G#	8b	8f	4dd
16AA	.	.	.
16A	[4a	4e	.
16AA	.	.	.
16G	.	.	8cc#
16AA	.	.	.
=142	=142	=142	=142
16F#	8a]	8r	4aa
16AA	.	.	.
16F	8A	8dd#	.
16AA	.	.	.
16E	8B	8ee	8gg#
32AA	.	.	.
32AA	.	.	.
16C#	8e	8b-	8gg
16AA	.	.	.
=143	=143	=143	=143
16D	8f#	8a	8ff#
32AA	.	.	.
32AA	.	.	.
16G#	8b	4dd	8ff
16AA	.	.	.
16A	8e	.	8.ee
32AA	.	.	.
32AA	.	.	.
16AA	16a	8cc#	.
16AA	16g	.	32dd
.	.	.	32ee
=144a	=144a	=144a	=144a
16D	8f#	8dd	8dd
32AA	.	.	.
32AA	.	.	.
16AA	8r	8r	8r
16AA	.	.	.
4r	4r	4r	4r
=144b	=144b	=144b	=144b
8D	16f#	8dd	8dd
.	32D	.	.
.	32D	.	.
8r	16D	8r	8r
.	16D	.	.
4r	16F#	4r	4r
.	16D	.	.
.	16F#	.	.
.	16D	.	.
=145	=145	=145	=145
[2d	16F#	2a	2cc
.	32D	.	.
.	32D	.	.
.	16D	.	.
.	16D	.	.
.	16F#	.	.
.	16D	.	.
.	16F#	.	.
.	16D	.	.
=146	=146	=146	=146
4d]	16G	4g	4b
.	32D	.	.
.	32D	.	.
.	16D	.	.
.	16D	.	.
4r	16G	4r	4r
.	16D	.	.
.	16G	.	.
.	16D	.	.
=147	=147	=147	=147
[2A	16E	4c#	4gg
.	32D	.	.
.	32D	.	.
.	16D	.	.
.	16D	.	.
.	16G	8e	8ee
.	16D	.	.
.	16E	8g	8cc#
.	16D	.	.
=148	=148	=148	=148
4A]	16F#	8.f#	8.aa
.	32D	.	.
.	32D	.	.
.	16D	.	.
.	16D	16d	16ff#
8d	16F#	8a	8dd
.	16D	.	.
8r	16F#	8r	8r
.	16D	.	.
=149	=149	=149	=149
[2d	16A	2f#	2ccc
.	32D	.	.
.	32D	.	.
.	16D	.	.
.	16D	.	.
.	16A	.	.
.	16D	.	.
.	16A	.	.
.	16D	.	.
=150	=150	=150	=150
8d]	16G	8g	8bb
.	32D	.	.
.	32D	.	.
8r	16D	8r	8r
.	16D	.	.
8d	16F#	8a	8aa
.	32D	.	.
.	32D	.	.
8r	16D	8r	8r
.	16D	.	.
=151	=151	=151	=151
8d	16B	8dd	8gg
.	16D	.	.
8d	16A	8dd	8ff#
.	16D	.	.
8c#	16G	8a	8ee
.	16D	.	.
8d	16F#	8a	8dd
.	16D	.	.
=152	=152	=152	=152
4e	4A	16a	4cc#
.	.	32A	.
.	.	32A	.
.	.	16A	.
.	.	16A	.
8r	8r	16c#	8r
.	.	16A	.
8g	8a	16c#	8ee
.	.	16A	.
=153	=153	=153	=153
4f	4a	16d	4ff
.	.	32A	.
.	.	32A	.
.	.	16A	.
.	.	16A	.
8r	8r	16d	8r
.	.	16A	.
8f	8a	16d	8dd
.	.	16A	.
=154	=154	=154	=154
4e	4a	16a	4cc#
.	.	32A	.
.	.	32A	.
.	.	16A	.
.	.	16A	.
8r	8r	16a	8r
.	.	16A	.
8e	8g	16a	8ccc#
.	.	16A	.
=155	=155	=155	=155
4d	4f	16a	4ddd
.	.	32A	.
.	.	32A	.
.	.	16A	.
.	.	16A	.
8r	8r	16a	8r
.	.	16A	.
8d	8f	16a	8gg#
.	.	16A	.
=156	=156	=156	=156
8c#	4e	4a	16aa
.	.	.	32a
.	.	.	32a
8AA	.	.	16a
.	.	.	16a
[4A	8r	8r	16aa
.	.	.	16a
.	8c#	8a	16aa
.	.	.	16a
=157	=157	=157	=157
8A]	4.d	4.g#	16bb
.	.	.	32a
.	.	.	32a
8AA	.	.	16a
.	.	.	16a
[4A	.	.	16bb
.	.	.	16a
.	8d	8g#	16bb
.	.	.	16a
=158	=158	=158	=158
16A]	8.e	8.g	16ccc#
16AA	.	.	32a
.	.	.	32a
8.A	.	.	16a
.	16e	16g	16a
.	8.d	8.f#	16ddd
16AA	.	.	32a
.	.	.	32a
[8A	.	.	16a
.	16f#	16dd	16a
=159	=159	=159	=159
16A]	8.g	8.cc#	16eee
16AA	.	.	32a
.	.	.	32a
8.A	.	.	16a
.	16g	16cc#	16a
.	8.f#	8.dd	16fff#
16AA	.	.	32a
.	.	.	32a
8A	.	.	16a
.	16d	16f#	16a
=160	=160	=160	=160
[4AA	[4c#	[4e	[6..ggg
8AA]	8c#]	8e]	.
.	.	.	48ggg]
.	.	.	16eee
8r	8r	8r	16ccc#
.	.	.	16aa
=161	=161	=161	=161
2r	2r	2r	16gg
.	.	.	16ee
.	.	.	16cc#
.	.	.	16a
.	.	.	16g
.	.	.	16e
.	.	.	16c#
.	.	.	16A
=162	=162	=162	=162
8r	8r	8r	2B-
8GG	8E	4G	.
8EE	8C#	.	.
8DD	8D	8G	.
=163	=163	=163	=163
8CC#	8E	8G	8A
4.r	4.r	4.r	8r
.	.	.	16.a
.	.	.	32f#
.	.	.	16.g
.	.	.	32e
=164	=164	=164	=164
4D	4F#	4A	8d
.	.	.	4f#
4D#	4B	4f#	.
.	.	.	8b
=165	=165	=165	=165
4E	4B	8f#	8a
.	.	8e	8g
4r	4r	4r	16a
.	.	.	16g
.	.	.	16f#
.	.	.	16e
=166	=166	=166	=166
8r	8r	8r	8d
8GG	8E	4A	8c#
8FF#	8F#	.	8d
8CC#	8G	8e	8a
=167	=167	=167	=167
4DD	8c#	8e	8g
.	8d	8d	8f#
4r	8d	8f#	8b
.	8c#	8e	8a
=168	=168	=168	=168
4r	8B	8d	8g#
.	8c#	8e	8a
8B	8d	8g	8gg
8A	8c#	8f#	8ff#
=169	=169	=169	=169
8G#	8B	8e#	8ee#
8A	8c#	8f#	8ff#
4r	8g	8b	[4ee
.	8f#	8a#	.
=170	=170	=170	=170
4.r	8g	8b	16ee]
.	.	.	16bb
.	4r	4r	16gg
.	.	.	32ff#
.	.	.	32ee
.	.	.	8dd
8A	8g	8cc#	8ee
=171	=171	=171	=171
8A#	8c#	8ee	8gg
8B	8d	4dd	8ff#
8G#	8.e	.	8bb
8G	.	[8aa	8ccc#
.	32d	.	.
.	32e	.	.
=172	=172	=172	=172
8F#	24f#	24aa]	24ddd
.	24d	24ff#	24aa
.	24a	24dd	24ff#
8G	24g	24b	24ee
.	24e	24g	24gg
.	24b	24e	24bb
8A	8.a	8.f#	8.dd
8AA	.	.	.
.	16c#	32a	32ff#
.	.	32g	32ee
=173	=173	=173	=173
8D	8d	8f#	8dd
4.r	4.r	4.r	8r
.	.	.	8dd
.	.	.	8cc#
=174	=174	=174	=174
2GG#	4.E	8d	8b
.	.	8c#	8..ee
.	.	8B	.
.	.	.	32ff#
.	8F#	8r	16.dd
.	.	.	32ee
=175	=175	=175	=175
4.AA	8G	16.e	8cc#
.	.	32f#	.
.	8F#	16.d	8..aa
.	.	32e	.
.	8E	8c#	.
.	.	.	32bb
8C#	[8a	8ee	16.gg
.	.	.	32aa
=176	=176	=176	=176
8D	8a]	8dd	16.ff#
.	.	.	32gg
8G	8g	8b	16.ee
.	.	.	32ff#
8A	8f#	8a	16.dd
.	.	.	32ee
8AA	16.e	8g	16.cc#
.	32c#	.	32ee
=177	=177	=177	=177
16D	8d	8f#	8dd
32AA	.	.	.
32AA	.	.	.
16D	8F#	4d	4dd
16AA	.	.	.
16E	8G	.	.
16AA	.	.	.
16F#	8A	8c#	8cc#
16AA	.	.	.
=178	=178	=178	=178
16G	8B	8B	8b
32AA	.	.	.
32AA	.	.	.
16E	8G	8..e	8..ee
16AA	.	.	.
16F#	8A	.	.
16AA	.	.	.
.	.	32f#	32ff#
16G	8B	16.d	16.dd
16AA	.	.	.
.	.	32e	32ee
=179	=179	=179	=179
16A	8A	8c#	8cc#
32AA	.	.	.
32AA	.	.	.
16GG	8c#	8e	8..aa
16G	.	.	.
16F#	8d	8a	.
16FF#	.	.	.
.	.	.	32bb
16EE	[8a	8cc#	16.gg
16E	.	.	.
.	.	.	32aa
=180	=180	=180	=180
16DD	8a]	8dd	16.ff#
16D	.	.	.
.	.	.	32gg
16GG	8g	8b	16.ee
16G	.	.	.
.	.	.	32ff#
16A	8a	16.f#	16.dd
16G	.	.	.
.	.	32g	32ee
16A	8a	16.e	16.cc#
16AA	.	.	.
.	.	32g	32ee
=181	=181	=181	=181
16D	4a	4f#	4dd
32DD	.	.	.
32DD	.	.	.
16DD	.	.	.
16DD	.	.	.
16FF#	4r	4r	4r
16DD	.	.	.
16AA	.	.	.
16DD	.	.	.
=182	=182	=182	=182
16D	4.f#	4.a	4.aa
32DD	.	.	.
32DD	.	.	.
16DD	.	.	.
16DD	.	.	.
16FF#	.	.	.
16DD	.	.	.
16AA	8e	8g	8ccc#
16DD	.	.	.
=183	=183	=183	=183
16D	4d	4f#	4ddd
32DD	.	.	.
32DD	.	.	.
16DD	.	.	.
16DD	.	.	.
16FF#	4r	4r	4r
16DD	.	.	.
16AA	.	.	.
16DD	.	.	.
=184	=184	=184	=184
16D	4.A	4.f#	4.aa
32DD	.	.	.
32DD	.	.	.
16DD	.	.	.
16DD	.	.	.
16FF#	.	.	.
16DD	.	.	.
16AA	8G	8e	8cc#
16DD	.	.	.
=185	=185	=185	=185
8D	8F#	8d	8dd
8r	8r	8r	8r
8DD	8F#	8A	8d
8r	8r	8r	8r
=186	=186	=186	=186
4DD	4F#	4A	4d
4r	4r	4r	4r
==	==	==	==
*-	*-	*-	*-
!!!RWG1: This file contains only pitch and duration data.
!!!RWG2: Transposing instruments are not transposed.
!!!RWG3: Spines may have incompatible meters.
!!!RWG4: Durations of rests and tied notes may be interpreted.
!!!RWG: Key is interpreted using the Humdrum key tool.
!!!AFT: stage1
!!!END: 1997/04/15
!!!KEY: 3455486825
!!!EMD: Converted from MuseData to Humdrum Dec 16, 2000, by Andreas Kornstaedt using muse2kern.
!!!EMD: Manual editing by Craig Sapp, Nov 2001
